build/img/logo.svg

<svg width="146" height="27" viewBox="0 0 146 27" fill="none" xmlns="http://www.w3.org/2000/svg">
<g id="logo" clip-path="url(#clip0_1032_1227)">
<g id="&#208;&#161;&#208;&#187;&#208;&#190;&#208;&#185;_x0020_1">
<path id="Vector" fill-rule="evenodd" clip-rule="evenodd" d="M144.732 9.36586C139.984 8.18474 136.148 10.4809 136.148 15.9533V25.097H139.253L139.341 15.9864C139.378 12.1701 142.671 11.6674 145.245 12.6128L146 9.79028L144.732 9.36586Z" fill="#F8F4E8"/>
<path id="Vector_2" fill-rule="evenodd" clip-rule="evenodd" d="M53.1309 16.563V25.0971H56.381V16.6256C56.381 13.5309 58.3638 11.8741 61.0289 11.8741C63.694 11.8741 65.6767 13.5312 65.6767 16.6256V25.0971H68.9269V16.563C68.9269 11.6552 65.5791 8.8418 61.0289 8.8418C56.4787 8.8418 53.1309 11.6556 53.1309 16.563Z" fill="#F8F4E8"/>
<path id="Vector_3" fill-rule="evenodd" clip-rule="evenodd" d="M123.945 9.12012C128.327 9.12012 131.88 12.6967 131.88 17.1086C131.88 21.5208 128.327 25.0975 123.945 25.0975C119.563 25.0975 116.011 21.5208 116.011 17.1086C116.011 12.6967 119.563 9.12012 123.945 9.12012ZM123.945 11.5909C126.972 11.5909 129.426 14.0612 129.426 17.1086C129.426 20.1563 126.972 22.6266 123.945 22.6266C120.918 22.6266 118.465 20.1563 118.465 17.1086C118.465 14.0612 120.918 11.5909 123.945 11.5909Z" fill="#F8F4E8"/>
<path id="Vector_4" fill-rule="evenodd" clip-rule="evenodd" d="M81.0303 9.12012C85.4124 9.12012 88.9648 12.6967 88.9648 17.1086C88.9648 21.5208 85.4124 25.0975 81.0303 25.0975C76.648 25.0975 73.0957 21.5208 73.0957 17.1086C73.0957 12.6967 76.648 9.12012 81.0303 9.12012ZM81.0303 11.5909C84.0571 11.5909 86.5107 14.0612 86.5107 17.1086C86.5107 20.1563 84.0571 22.6266 81.0303 22.6266C78.0034 22.6266 75.5497 20.1563 75.5497 17.1086C75.5497 14.0612 78.0034 11.5909 81.0303 11.5909Z" fill="#F8F4E8"/>
<path id="Vector_5" fill-rule="evenodd" clip-rule="evenodd" d="M35.148 25.0551H38.2528V18.1666H40.2458C40.363 18.3706 40.53 18.6076 40.7678 18.8968L45.8652 25.0976L49.6692 25.0551L43.1863 17.8101C42.9221 17.5147 42.7827 17.3099 42.7827 17.0911C42.7827 16.841 42.9159 16.5997 43.1863 16.3096L49.8959 9.11241L46.1841 9.154L41.1228 14.8209C40.7397 15.2497 40.4781 15.5626 40.3025 15.8275H38.2528V1.71484H35.1479V25.055L35.148 25.0551Z" fill="#F8F4E8"/>
<path id="Vector_6" fill-rule="evenodd" clip-rule="evenodd" d="M103.452 24.3963L103.445 21.5767C102.358 22.1805 101.291 22.4973 100.515 22.4973C98.217 22.4973 97.3061 20.9113 97.3068 18.8482L97.3095 11.5331L103.355 11.495V9.0249H97.2335V1.7627H94.2021V9.0249H91.0176V11.495H94.2021V19.0982C94.2021 23.0679 96.6742 25.0976 100.307 25.0976C101.363 25.0976 102.192 24.8458 103.452 24.3963V24.3963Z" fill="#F8F4E8"/>
<path id="Vector_7" fill-rule="evenodd" clip-rule="evenodd" d="M108.364 1.75684V25.097H111.468V1.75684H108.364Z" fill="#F8F4E8"/>
<path id="Vector_8" fill-rule="evenodd" clip-rule="evenodd" d="M13.4085 27.0001C20.8138 27.0001 26.8171 20.9558 26.8171 13.5C26.8171 6.04423 20.8139 0 13.4085 0C6.00327 0 0 6.04415 0 13.5C0 17.3616 1.61066 20.8442 4.19234 23.3048C3.37442 10.6289 14.7065 3.73808 24.8106 8.43123L22.3647 13.1738C16.9995 10.6466 9.44021 13.0861 9.70597 23.5634L9.70706 26.4786C10.8827 26.8179 12.1245 27 13.4085 27V27.0001ZM4.28719 6.42472H12.1183C8.72742 7.90518 6.04806 10.3037 4.28719 13.887V6.42472Z" fill="#F8F4E8"/>
</g>
</g>
<defs>
<clipPath id="clip0_1032_1227">
<rect width="146" height="27" fill="white"/>
</clipPath>
</defs>
</svg>

<svg width="146" height="27" fill="none" xmlns="http://www.w3.org/2000/svg"><g fill-rule="evenodd" clip-rule="evenodd" fill="#F8F4E8" clip-path="url(#clip0_1032_1227)"><path d="M144.732 9.366c-4.748-1.181-8.584 1.115-8.584 6.587v9.144h3.105l.088-9.11c.037-3.817 3.33-4.32 5.904-3.374L146 9.79l-1.268-.424zM53.13 16.563v8.534h3.251v-8.471c0-3.095 1.983-4.752 4.648-4.752 2.665 0 4.648 1.657 4.648 4.752v8.471h3.25v-8.534c0-4.908-3.348-7.721-7.898-7.721s-7.898 2.814-7.898 7.721zm70.815-7.443c4.382 0 7.935 3.577 7.935 7.989s-3.553 7.988-7.935 7.988-7.934-3.576-7.934-7.988c0-4.412 3.552-7.989 7.934-7.989zm0 2.47c3.027 0 5.481 2.471 5.481 5.519 0 3.047-2.454 5.518-5.481 5.518-3.027 0-5.48-2.47-5.48-5.518 0-3.048 2.453-5.518 5.48-5.518zM81.03 9.12c4.382 0 7.935 3.577 7.935 7.989s-3.553 7.988-7.935 7.988-7.934-3.576-7.934-7.988c0-4.412 3.552-7.989 7.934-7.989zm0 2.47c3.027 0 5.48 2.471 5.48 5.519 0 3.047-2.453 5.518-5.48 5.518-3.027 0-5.48-2.47-5.48-5.518 0-3.048 2.453-5.518 5.48-5.518zM35.148 25.055h3.105v-6.888h1.993c.117.204.284.44.522.73l5.097 6.2 3.804-.042-6.483-7.245c-.264-.295-.403-.5-.403-.719 0-.25.133-.491.403-.781l6.71-7.198-3.712.042-5.061 5.667c-.383.429-.645.742-.82 1.007h-2.05V1.715h-3.105v23.34zm68.304-.659l-.007-2.82c-1.087.604-2.154.921-2.93.921-2.298 0-3.209-1.586-3.208-3.649l.002-7.315 6.046-.038v-2.47h-6.121V1.763h-3.032v7.262h-3.184v2.47h3.184v7.603c0 3.97 2.472 6 6.105 6 1.056 0 1.885-.252 3.145-.702zm4.912-22.639v23.34h3.104V1.757h-3.104zM13.409 27c7.405 0 13.408-6.044 13.408-13.5S20.814 0 13.408 0C6.003 0 0 6.044 0 13.5c0 3.862 1.61 7.344 4.192 9.805C3.374 10.629 14.706 3.738 24.811 8.43l-2.446 4.743C17 10.647 9.44 13.086 9.706 23.564l.001 2.915a13.33 13.33 0 003.701.521zM4.287 6.425h7.831c-3.39 1.48-6.07 3.879-7.83 7.462V6.425z"/></g><defs><clipPath id="clip0_1032_1227"><path fill="#fff" d="M0 0h146v27H0z"/></clipPath></defs></svg>
